picto/tram-right-framed.svg

<svg class="color-immutable" width="30" height="30" viewBox="0 0 30 30" fill="none" xmlns="http://www.w3.org/2000/svg"><path d="M30 0H0V30H30V0Z" fill="#2D327D"/><path d="M25.5 3C26.325 3 27 3.675 27 4.5V25.5C27 26.3251 26.325 27.0001 25.5 27.0001H4.5C3.675 27.0001 3 26.3251 3 25.5V4.5C3 3.675 3.675 3 4.5 3H25.5ZM25.5 2.625H4.5C3.46613 2.625 2.625 3.46613 2.625 4.5V25.5C2.625 26.5339 3.46613 27.375 4.5 27.375H25.5C26.5339 27.375 27.375 26.5339 27.375 25.5V4.5C27.375 3.46613 26.5339 2.625 25.5 2.625Z" fill="white"/><path d="M13.4205 7.1859C13.3554 7.1208 13.3189 7.03252 13.3189 6.94072C13.3189 6.7491 13.4742 6.59385 13.6659 6.59385C13.7579 6.59385 13.8459 6.6303 13.911 6.6954L17.7919 10.5762H20.8783C21.4308 10.5762 21.9184 10.9372 22.08 11.4657L23.9737 17.6688C23.991 17.7255 23.9998 17.7846 23.9998 17.8439V20.5503C23.9998 20.7574 23.8319 20.9253 23.6248 20.9253H6.0011V16.5006H9.6383C9.84552 16.5006 10.0134 16.3327 10.0134 16.1257V11.6261C10.0134 11.4192 9.84552 11.2511 9.6383 11.2511H6.0011V10.5761H16.8108L13.4205 7.1859ZM20.2502 17.6255C20.2502 17.8326 20.4181 18.0006 20.625 18.0006H22.8432C23.0503 18.0006 23.2182 17.8326 23.2182 17.6255C23.2182 17.5885 23.2127 17.5516 23.2018 17.5162L21.3879 11.5744C21.3156 11.3378 21.0972 11.1762 20.85 11.1762H20.8126C20.5021 11.1762 20.2502 11.428 20.2502 11.7386V17.6255ZM18.4316 17.5132C18.4316 17.8236 18.6834 18.0757 18.9939 18.0757C19.3044 18.0757 19.5564 17.8236 19.5564 17.5132V11.7387C19.5564 11.4281 19.3044 11.1763 18.9939 11.1763C18.6834 11.1763 18.4316 11.4281 18.4316 11.7387V17.5132ZM15.9379 11.6262C15.9379 11.4193 15.77 11.2512 15.563 11.2512H11.0634C10.8561 11.2512 10.6882 11.4193 10.6882 11.6262V16.1258C10.6882 16.3327 10.8561 16.5007 11.0634 16.5007H15.563C15.7699 16.5007 15.9379 16.3327 15.9379 16.1258V11.6262ZM16.6128 11.7387V17.5132C16.6128 17.8236 16.8649 18.0757 17.1752 18.0757C17.4857 18.0757 17.7376 17.8236 17.7376 17.5132V11.7387C17.7376 11.4281 17.4857 11.1763 17.1752 11.1763C16.8649 11.1763 16.6128 11.4281 16.6128 11.7387Z" fill="white"/><path d="M15.3489 21.6753H19.1283C18.8171 22.4457 18.0695 22.9502 17.2385 22.9502C16.4077 22.9502 15.6599 22.4458 15.3489 21.6753Z" fill="white"/><path d="M10.849 21.6753H10.8492H14.6285C14.3174 22.4457 13.5698 22.9502 12.7389 22.9502C11.908 22.9502 11.1603 22.4458 10.849 21.6753Z" fill="white"/><path d="M24 23.325H6V24H24V23.325Z" fill="white"/><path d="M24 6H6V6.375H24V6Z" fill="white"/></svg>

<svg class="color-immutable" width="30" height="30" viewBox="0 0 30 30" fill="none" xmlns="http://www.w3.org/2000/svg"><g clip-path="url(#a)"><path d="M30 0H0v30h30V0Z" fill="#2D327D"/><path d="M25.5 3c.825 0 1.5.675 1.5 1.5v21c0 .825-.675 1.5-1.5 1.5h-21c-.825 0-1.5-.675-1.5-1.5v-21C3 3.675 3.675 3 4.5 3h21Zm0-.375h-21A1.877 1.877 0 0 0 2.625 4.5v21c0 1.034.841 1.875 1.875 1.875h21a1.877 1.877 0 0 0 1.875-1.875v-21A1.877 1.877 0 0 0 25.5 2.625Z" fill="#fff"/><path d="M13.42 7.186a.347.347 0 1 1 .491-.49l3.88 3.88h3.087c.553 0 1.04.361 1.202.89l1.894 6.203a.6.6 0 0 1 .026.175v2.706a.375.375 0 0 1-.375.375H6v-4.424h3.637a.375.375 0 0 0 .375-.375v-4.5a.375.375 0 0 0-.375-.375H6.001v-.675h10.81l-3.39-3.39Zm6.83 10.44c0 .207.168.375.375.375h2.218a.375.375 0 0 0 .359-.485l-1.814-5.942a.563.563 0 0 0-.538-.398h-.037a.562.562 0 0 0-.563.563v5.886Zm-1.818-.113a.563.563 0 0 0 1.124 0V11.74a.563.563 0 0 0-1.124 0v5.774Zm-2.494-5.887a.375.375 0 0 0-.375-.375h-4.5a.375.375 0 0 0-.375.375v4.5c0 .207.168.375.375.375h4.5a.375.375 0 0 0 .375-.375v-4.5Zm.675.113v5.774a.563.563 0 0 0 1.125 0V11.74a.562.562 0 0 0-1.125 0ZM15.349 21.675h3.78a2.038 2.038 0 0 1-3.78 0ZM10.849 21.675h3.78a2.038 2.038 0 0 1-3.78 0ZM24 23.325H6V24h18v-.675ZM24 6H6v.375h18V6Z" fill="#fff"/></g><defs><clipPath id="a"><path fill="#fff" d="M0 0h30v30H0z"/></clipPath></defs></svg>
